static/images/fast.svg

<svg id="Capa_1" enable-background="new 0 0 512 512" height="512" viewBox="0 0 512 512" width="512" xmlns="http://www.w3.org/2000/svg"><g><path d="m38.872 149.21h79.098c4.142 0 7.5-3.357 7.5-7.5s-3.358-7.5-7.5-7.5h-79.098c-4.142 0-7.5 3.357-7.5 7.5s3.357 7.5 7.5 7.5z"/><path d="m115.258 185.317h-31.246c-4.142 0-7.5 3.357-7.5 7.5s3.358 7.5 7.5 7.5h31.246c4.142 0 7.5-3.357 7.5-7.5s-3.358-7.5-7.5-7.5z"/><path d="m7.5 237.327h76.512c4.142 0 7.5-3.357 7.5-7.5s-3.358-7.5-7.5-7.5h-76.512c-4.142 0-7.5 3.357-7.5 7.5s3.358 7.5 7.5 7.5z"/><path d="m125.47 370.289c0-4.143-3.358-7.5-7.5-7.5h-79.098c-4.142 0-7.5 3.357-7.5 7.5s3.358 7.5 7.5 7.5h79.098c4.142 0 7.5-3.357 7.5-7.5z"/><path d="m115.258 311.683h-31.246c-4.142 0-7.5 3.357-7.5 7.5s3.358 7.5 7.5 7.5h31.246c4.142 0 7.5-3.357 7.5-7.5s-3.358-7.5-7.5-7.5z"/><path d="m91.512 282.173c0-4.143-3.358-7.5-7.5-7.5h-76.512c-4.142 0-7.5 3.357-7.5 7.5s3.358 7.5 7.5 7.5h76.512c4.142 0 7.5-3.357 7.5-7.5z"/><path d="m319.529 165.83c4.143 0 7.5-3.357 7.5-7.5v-11.448c0-4.143-3.357-7.5-7.5-7.5s-7.5 3.357-7.5 7.5v11.448c0 4.143 3.357 7.5 7.5 7.5z"/><path d="m401.99 173.538c-2.93-2.928-7.678-2.928-10.607 0l-8.095 8.095c-2.929 2.93-2.929 7.678 0 10.607 2.931 2.929 7.678 2.928 10.607 0l8.095-8.095c2.928-2.929 2.928-7.677 0-10.607z"/><path d="m417.199 248.5c-4.143 0-7.5 3.357-7.5 7.5s3.357 7.5 7.5 7.5h11.447c4.143 0 7.5-3.357 7.5-7.5s-3.357-7.5-7.5-7.5z"/><path d="m393.895 319.759c-2.93-2.928-7.678-2.928-10.607 0-2.929 2.93-2.929 7.678 0 10.607l8.095 8.095c2.931 2.929 7.678 2.928 10.607 0 2.929-2.93 2.929-7.678 0-10.607z"/><path d="m312.029 353.67v11.447c0 4.143 3.357 7.5 7.5 7.5s7.5-3.357 7.5-7.5v-11.447c0-4.143-3.357-7.5-7.5-7.5s-7.5 3.358-7.5 7.5z"/><path d="m245.162 319.759-8.095 8.095c-2.929 2.93-2.929 7.678 0 10.607 2.93 2.929 7.678 2.928 10.606 0l8.095-8.095c2.929-2.93 2.929-7.678 0-10.607-2.928-2.928-7.677-2.928-10.606 0z"/><path d="m210.411 248.5c-4.142 0-7.5 3.357-7.5 7.5s3.358 7.5 7.5 7.5h11.448c4.142 0 7.5-3.357 7.5-7.5s-3.358-7.5-7.5-7.5z"/><path d="m255.769 181.633-8.095-8.095c-2.929-2.928-7.678-2.928-10.606 0-2.929 2.93-2.929 7.678 0 10.607l8.095 8.095c2.93 2.929 7.678 2.928 10.606 0 2.929-2.929 2.929-7.677 0-10.607z"/><path d="m359.859 256c0-4.143-3.357-7.5-7.5-7.5h-25.33v-55.684c0-4.143-3.357-7.5-7.5-7.5s-7.5 3.357-7.5 7.5v63.184c0 4.143 3.357 7.5 7.5 7.5h32.83c4.142 0 7.5-3.357 7.5-7.5z"/><path d="m461.741 254.762c4.135-.251 7.283-3.806 7.032-7.94-4.771-78.703-70.327-140.354-149.245-140.354-82.452 0-149.532 67.08-149.532 149.533 0 82.452 67.08 149.532 149.532 149.532 73.869 0 136.9-54.122 147.865-127.157.615-4.096-2.207-7.915-6.304-8.53-4.086-.613-7.915 2.206-8.53 6.304-9.85 65.614-66.506 114.384-133.031 114.384-74.181 0-134.532-60.351-134.532-134.532s60.351-134.533 134.532-134.533c71.001 0 129.98 55.461 134.272 126.263.25 4.132 3.802 7.27 7.941 7.03z"/><path d="m319.528 63.529c-26.381 0-52.228 5.473-76.018 15.708h-132.329c-4.142 0-7.5 3.357-7.5 7.5s3.358 7.5 7.5 7.5h104.113c-14.077 9.06-27.036 19.988-38.462 32.604-2.78 3.069-2.546 7.812.524 10.593 3.071 2.781 7.812 2.546 10.594-.524 33.602-37.102 81.561-58.381 131.578-58.381 97.858 0 177.472 79.613 177.472 177.471 0 97.857-79.613 177.471-177.472 177.471-97.858 0-177.471-79.613-177.471-177.471 0-34.268 9.789-67.528 28.307-96.186 2.248-3.479 1.25-8.121-2.229-10.369-3.479-2.247-8.121-1.251-10.37 2.229-20.09 31.088-30.708 67.163-30.708 104.326 0 67.766 35.206 127.458 88.285 161.763h-104.16c-4.142 0-7.5 3.357-7.5 7.5s3.358 7.5 7.5 7.5h132.225c23.36 10.099 49.097 15.708 76.122 15.708 106.128 0 192.471-86.342 192.471-192.471s-86.343-192.471-192.472-192.471z"/></g></svg>

<svg width="512" height="512" viewBox="0 0 512 512" fill="none" xmlns="http://www.w3.org/2000/svg">
    <path d="M38.8721 149.21H117.97C122.112 149.21 125.47 145.853 125.47 141.71C125.47 137.567 122.112 134.21 117.97 134.21H38.8721C34.7301 134.21 31.3721 137.567 31.3721 141.71C31.3721 145.853 34.7291 149.21 38.8721 149.21Z" fill="#181B5E"/>
    <path d="M115.258 185.317H84.0117C79.8697 185.317 76.5117 188.674 76.5117 192.817C76.5117 196.96 79.8697 200.317 84.0117 200.317H115.258C119.4 200.317 122.758 196.96 122.758 192.817C122.758 188.674 119.4 185.317 115.258 185.317Z" fill="#181B5E"/>
    <path d="M7.5 237.327H84.012C88.154 237.327 91.512 233.97 91.512 229.827C91.512 225.684 88.154 222.327 84.012 222.327H7.5C3.358 222.327 0 225.684 0 229.827C0 233.97 3.358 237.327 7.5 237.327Z" fill="#181B5E"/>
    <path d="M125.47 370.289C125.47 366.146 122.112 362.789 117.97 362.789H38.8721C34.7301 362.789 31.3721 366.146 31.3721 370.289C31.3721 374.432 34.7301 377.789 38.8721 377.789H117.97C122.112 377.789 125.47 374.432 125.47 370.289Z" fill="#181B5E"/>
    <path d="M115.258 311.684H84.0117C79.8697 311.684 76.5117 315.041 76.5117 319.184C76.5117 323.327 79.8697 326.684 84.0117 326.684H115.258C119.4 326.684 122.758 323.327 122.758 319.184C122.758 315.041 119.4 311.684 115.258 311.684Z" fill="#181B5E"/>
    <path d="M91.512 282.173C91.512 278.03 88.154 274.673 84.012 274.673H7.5C3.358 274.673 0 278.03 0 282.173C0 286.316 3.358 289.673 7.5 289.673H84.012C88.154 289.673 91.512 286.316 91.512 282.173Z" fill="#181B5E"/>
    <path d="M319.529 165.83C323.672 165.83 327.029 162.473 327.029 158.33V146.882C327.029 142.739 323.672 139.382 319.529 139.382C315.386 139.382 312.029 142.739 312.029 146.882V158.33C312.029 162.473 315.386 165.83 319.529 165.83Z" fill="#181B5E"/>
    <path d="M401.99 173.539C399.06 170.611 394.312 170.611 391.383 173.539L383.288 181.634C380.359 184.564 380.359 189.312 383.288 192.241C386.219 195.17 390.966 195.169 393.895 192.241L401.99 184.146C404.918 181.217 404.918 176.469 401.99 173.539Z" fill="#181B5E"/>
    <path d="M417.199 248.5C413.056 248.5 409.699 251.857 409.699 256C409.699 260.143 413.056 263.5 417.199 263.5H428.646C432.789 263.5 436.146 260.143 436.146 256C436.146 251.857 432.789 248.5 428.646 248.5H417.199Z" fill="#181B5E"/>
    <path d="M393.895 319.759C390.965 316.831 386.217 316.831 383.288 319.759C380.359 322.689 380.359 327.437 383.288 330.366L391.383 338.461C394.314 341.39 399.061 341.389 401.99 338.461C404.919 335.531 404.919 330.783 401.99 327.854L393.895 319.759Z" fill="#181B5E"/>
    <path d="M312.029 353.67V365.117C312.029 369.26 315.386 372.617 319.529 372.617C323.672 372.617 327.029 369.26 327.029 365.117V353.67C327.029 349.527 323.672 346.17 319.529 346.17C315.386 346.17 312.029 349.528 312.029 353.67Z" fill="#181B5E"/>
    <path d="M245.162 319.759L237.067 327.854C234.138 330.784 234.138 335.532 237.067 338.461C239.997 341.39 244.745 341.389 247.673 338.461L255.768 330.366C258.697 327.436 258.697 322.688 255.768 319.759C252.84 316.831 248.091 316.831 245.162 319.759Z" fill="#181B5E"/>
    <path d="M210.411 248.5C206.269 248.5 202.911 251.857 202.911 256C202.911 260.143 206.269 263.5 210.411 263.5H221.859C226.001 263.5 229.359 260.143 229.359 256C229.359 251.857 226.001 248.5 221.859 248.5H210.411Z" fill="#181B5E"/>
    <path d="M255.769 181.634L247.674 173.539C244.745 170.611 239.996 170.611 237.068 173.539C234.139 176.469 234.139 181.217 237.068 184.146L245.163 192.241C248.093 195.17 252.841 195.169 255.769 192.241C258.698 189.312 258.698 184.564 255.769 181.634Z" fill="#181B5E"/>
    <path d="M359.859 256C359.859 251.857 356.502 248.5 352.359 248.5H327.029V192.816C327.029 188.673 323.672 185.316 319.529 185.316C315.386 185.316 312.029 188.673 312.029 192.816V256C312.029 260.143 315.386 263.5 319.529 263.5H352.359C356.501 263.5 359.859 260.143 359.859 256Z" fill="#181B5E"/>
    <path d="M461.741 254.763C465.876 254.512 469.024 250.957 468.773 246.823C464.002 168.12 398.446 106.469 319.528 106.469C237.076 106.469 169.996 173.549 169.996 256.002C169.996 338.454 237.076 405.534 319.528 405.534C393.397 405.534 456.428 351.412 467.393 278.377C468.008 274.281 465.186 270.462 461.089 269.847C457.003 269.234 453.174 272.053 452.559 276.151C442.709 341.765 386.053 390.535 319.528 390.535C245.347 390.535 184.996 330.184 184.996 256.003C184.996 181.822 245.347 121.47 319.528 121.47C390.529 121.47 449.508 176.931 453.8 247.733C454.05 251.865 457.602 255.003 461.741 254.763V254.763Z" fill="#181B5E"/>
    <path d="M319.528 63.5293C293.147 63.5293 267.3 69.0023 243.51 79.2373H111.181C107.039 79.2373 103.681 82.5943 103.681 86.7373C103.681 90.8803 107.039 94.2373 111.181 94.2373H215.294C201.217 103.297 188.258 114.225 176.832 126.841C174.052 129.91 174.286 134.653 177.356 137.434C180.427 140.215 185.168 139.98 187.95 136.91C221.552 99.8083 269.511 78.5293 319.528 78.5293C417.386 78.5293 497 158.142 497 256C497 353.857 417.387 433.471 319.528 433.471C221.67 433.471 142.057 353.858 142.057 256C142.057 221.732 151.846 188.472 170.364 159.814C172.612 156.335 171.614 151.693 168.135 149.445C164.656 147.198 160.014 148.194 157.765 151.674C137.675 182.762 127.057 218.837 127.057 256C127.057 323.766 162.263 383.458 215.342 417.763H111.182C107.04 417.763 103.682 421.12 103.682 425.263C103.682 429.406 107.04 432.763 111.182 432.763H243.407C266.767 442.862 292.504 448.471 319.529 448.471C425.657 448.471 512 362.129 512 256C512 149.871 425.657 63.5293 319.528 63.5293V63.5293Z" fill="#181B5E"/>
</svg>
